X:121
T:The Comforter Has Come
%%stretchlast false
M:3/4
L:1/8
K:Ab clef=C1
"^I"[A,Ace]2 [A,Ace]3 "^IV²"[A,Adf] | "^I"[A,Ace] [A,EAc] [A,Ace]4 | [A,Eca]2 "^IV"[DFda]3 "^ii¹"[DFdb] | "^IV"[DFda] [DAdf] [DFda]4 | [DAdf]2 "^I"[A,Ace]3 "^IV²"[A,Adf] | "^I"[A,Ace] [A,EAc] [A,Ace]4 | [A,EAc]2 "^vi"[F,FAc]3 [F,FAc] | "^♯vii°¹"[B,=DAB] "^♯iii"[B,DA] "^V"[E,EGB]4 | "^♯iii°"[E,Gde]2 "^I"[A,Ace]3 "^IV²"[A,Adf] | "^I"[A,Ace] [A,EAc] [A,Ace]4 | "^♯vi°"[C_Gca]2 "^IV"[DFda]3 "^ii¹"[DFdb] | "^IV"[DFda] [DAdf] [DFda]4 | [DAdf]2 "^I²"[EAce]4 | [EAca]2 [EAec']4 | "^V7"[EGdb]2 "^iii+"[A,Aca]4 | "^I"[A,Eca]2 [A,Aec']3 "^♯iii"[A,Edb] | "^I"[A,Eca] "^♯iii"[A,Edb] "^I"[A,Aec']4 | [A,Eca]2 "^IV"[DFda]3 "^ii¹"[DFdb] | "^IV"[DFda] [DAdf] [DFda]4 | [DAdf]2 "^I"[A,Ace]3 "^IV²"[A,Adf] | "^I"[A,Ace] [A,EAc] [A,Ace]4 | [A,EAc]2 "^vi"[F,FAc]3 [F,FAc] | "^♯vii°¹"[B,=DAB] "^♯iii"[B,DA] "^V"[E,EGB]4 | "^♯iii°"[E,Gde]2 "^I"[A,Ace]3 "^IV²"[A,Adf] | "^I"[A,Ace] [A,EAc] [A,Ace]4 | "^♯vi°"[C_Gca]2 "^IV"[DFda]3 "^ii¹"[DFdb] | "^IV"[DFda] [DAdf] [DFda]4 | [DAdf]2 "^I²"[EAce]4 | [EAca]2 [EAec']4 | "^V7"[EGdb]2 "^iii+"[A,Aca]4 |]
